X: 11531
Q: "Bold and with spirit."
M: C
L: 1/8
K: Bb
[|\
c4 A4 | F4 C4 |
(D2C2) (D2=E2) | (F2E2) (F2G2) | (A2G2) (A2B2) | c4 z4 |\
^F2G2 A2B2 | c2B>B A2G2 | ^F2=E2 F2D2 | G4 z4 |\
e6 e2 | F6 F2 |
E2F2 G2A2 | (TB3c) d2c2 | (TB3c) d2c2 | B4 z2D2 |\
E2F2 G2A2 | B4 E4 | F6 F2 | B,4 z4 |]


